icons/landscape.svg

<svg width="24" height="24" viewBox="0 0 24 24" fill="none" xmlns="http://www.w3.org/2000/svg">
<path fill-rule="evenodd" clip-rule="evenodd" d="M2 4C2 2.89543 2.89543 2 4 2C5.10457 2 6 2.89543 6 4C6 5.10457 5.10457 6 4 6C2.89543 6 2 5.10457 2 4ZM15 6C15.3679 6 15.7061 6.20199 15.8805 6.5259L22.8805 19.5259C23.0473 19.8358 23.039 20.2106 22.8585 20.5128C22.678 20.815 22.352 21 22 21H3C2.64706 21 2.32026 20.814 2.1401 20.5105C1.95994 20.207 1.9531 19.831 2.1221 19.5211L8.1221 8.52115C8.29734 8.19989 8.63406 8 9 8C9.36594 8 9.70266 8.19989 9.8779 8.52115L11.4717 11.4432L14.1195 6.5259C14.2939 6.20199 14.6321 6 15 6ZM12.6148 13.5389L15.5936 19H20.3258L15 9.10926L12.6148 13.5389ZM13.3155 19L9 11.0883L4.68454 19H13.3155Z" fill="black"/>
</svg>

<svg
  width="24"
  height="24"
  viewBox="0 0 24 24"
  xmlns="http://www.w3.org/2000/svg"
>
  <path
    fill-rule="evenodd"
    clip-rule="evenodd"
    d="M2 4a2 2 0 1 1 4 0 2 2 0 0 1-4 0zm13 2a1 1 0 0 1 .88.526l7 13A1 1 0 0 1 22 21H3a1 1 0 0 1-.878-1.479l6-11a1 1 0 0 1 1.756 0l1.594 2.922 2.648-4.917A1 1 0 0 1 15 6zm-2.385 7.539L15.594 19h4.732L15 9.11l-2.385 4.429zm.7 5.461L9 11.088 4.685 19h8.63z"
  />
</svg>
